src/assets/icons/vk_icon.svg

<svg width="24" height="24" viewBox="0 0 24 24" fill="none" xmlns="http://www.w3.org/2000/svg">
<g clip-path="url(#clip0)">
<path d="M0 11.5C0 6.07885 0 3.36827 1.68413 1.68413C3.36827 0 6.07885 0 11.5 0H12.5C17.9212 0 20.6318 0 22.3158 1.68413C24 3.36827 24 6.07885 24 11.5V12.5C24 17.9212 24 20.6318 22.3158 22.3158C20.6318 24 17.9212 24 12.5 24H11.5C6.07885 24 3.36827 24 1.68413 22.3158C0 20.6318 0 17.9212 0 12.5L0 11.5Z" fill="#2787F5"/>
<path fill-rule="evenodd" clip-rule="evenodd" d="M6.50045 7.5H4.75005C4.24993 7.5 4.1499 7.7354 4.1499 7.9949C4.1499 8.45845 4.74333 10.7574 6.913 13.7979C8.35945 15.8744 10.3974 17 12.2518 17C13.3645 17 13.5021 16.75 13.5021 16.3194V14.75C13.5021 14.25 13.6075 14.1502 13.9598 14.1502C14.2195 14.1502 14.6645 14.28 15.703 15.2811C16.8899 16.4677 17.0855 17 17.7531 17H19.5035C20.0036 17 20.2537 16.75 20.1094 16.2567C19.9516 15.765 19.3849 15.0515 18.633 14.2058C18.225 13.7238 17.6131 13.2047 17.4276 12.9451C17.168 12.6114 17.2422 12.463 17.4276 12.1664C17.4276 12.1664 19.5602 9.16295 19.7828 8.1433C19.894 7.77245 19.7828 7.5 19.2534 7.5H17.503C17.058 7.5 16.8528 7.7354 16.7415 7.9949C16.7415 7.9949 15.8514 10.1641 14.5904 11.5731C14.1824 11.981 13.9969 12.1108 13.7744 12.1108C13.6631 12.1108 13.5021 11.981 13.5021 11.6103V8.1433C13.5021 7.6983 13.3729 7.5 13.002 7.5H10.2513C9.9732 7.5 9.8059 7.7065 9.8059 7.90225C9.8059 8.32405 10.4364 8.42135 10.5014 9.6079V12.185C10.5014 12.75 10.3993 12.8525 10.1768 12.8525C9.5834 12.8525 8.13995 10.6736 7.28385 8.18035C7.1161 7.69575 6.9478 7.5 6.50045 7.5Z" fill="white"/>
</g>
<defs>
<clipPath id="clip0">
<rect width="24" height="24" fill="white"/>
</clipPath>
</defs>
</svg>

<svg width="24" height="24" viewBox="0 0 24 24" fill="none" xmlns="http://www.w3.org/2000/svg"><g clip-path="url(#a)"><path d="M0 11.5c0-5.4211 0-8.1317 1.6841-9.8159C3.3683 0 6.079 0 11.5 0h1c5.4212 0 8.1318 0 9.8158 1.6841C24 3.3683 24 6.079 24 11.5v1c0 5.4212 0 8.1318-1.6842 9.8158C20.6318 24 17.9212 24 12.5 24h-1c-5.4211 0-8.1317 0-9.8159-1.6842C0 20.6318 0 17.9212 0 12.5v-1Z" fill="#2787F5"/><path fill-rule="evenodd" clip-rule="evenodd" d="M6.5004 7.5H4.75c-.5 0-.6001.2354-.6001.4949 0 .4635.5934 2.7625 2.7631 5.803C8.3595 15.8744 10.3974 17 12.2518 17c1.1127 0 1.2503-.25 1.2503-.6806V14.75c0-.5.1054-.5998.4577-.5998.2597 0 .7047.1298 1.7432 1.1309C16.8899 16.4677 17.0855 17 17.7531 17h1.7504c.5001 0 .7502-.25.6059-.7433-.1578-.4917-.7245-1.2052-1.4764-2.0509-.408-.482-1.0199-1.0011-1.2054-1.2607-.2596-.3337-.1854-.4821 0-.7787 0 0 2.1326-3.0034 2.3552-4.0231.1112-.3708 0-.6433-.5294-.6433H17.503c-.445 0-.6502.2354-.7615.4949 0 0-.8901 2.1692-2.1511 3.5782-.408.4079-.5935.5377-.816.5377-.1113 0-.2723-.1298-.2723-.5005v-3.467c0-.445-.1292-.6433-.5001-.6433h-2.7507c-.2781 0-.4454.2065-.4454.4023 0 .4217.6305.519.6955 1.7056v2.5771c0 .565-.1021.6675-.3246.6675-.5934 0-2.0368-2.1789-2.893-4.6721-.1677-.4847-.336-.6804-.7834-.6804Z" fill="#fff"/></g><defs><clipPath id="a"><path fill="#fff" d="M0 0h24v24H0z"/></clipPath></defs></svg>
